X:186
T: Redhaired Lass
M:4/4
L:1/8
R:reel
K:G
DGGF G2 BG | G2 BG AGEG |1 DGGF Bc | egdB cBAG :|2 DGGF G2 (3Bcd| egdB c2 Bc||
d2 gd edgd | d2 gd BGBc|1 d2 gd edef | gedB c2 Bc :|2 ~c3 A ~B3 A| GABd egdB||
